logo-black.svg

<svg clip-rule="evenodd" fill-rule="evenodd" stroke-linejoin="round" stroke-miterlimit="2" viewBox="0 0 100 100" xmlns="http://www.w3.org/2000/svg"><path d="m97.016 495.52-.002-27.855h32.497c4.408 0 8.61.877 12.443 2.467.066.028.133.056.199.084 4.236 1.807 8.063 4.523 11.21 7.874 5.365 5.796 8.645 13.551 8.645 22.072 0 11.781-6.269 22.098-15.653 27.796h.001c-4.912 2.984-10.676 4.701-16.843 4.701h-4.434l-.007-.001h.007c-1.923-4.517-.816-12.497 10.764-32.203l1.117-1.712-26.936 33.916h-13.008zm48.413-17.27c-1.286-.926-3.245-2.028-3.245-2.028-13.25 7.487-26.501 14.973-39.752 22.459v28.562h4.977l38.578-48.575c-.151-.116-.303-.23-.456-.343l-.049-.036zm4.518 4.141-4.08 5.137c-8.207 11.802-9.531 29.603-4.589 37.032 9.063-4.379 15.315-13.658 15.315-24.398 0-6.8-2.507-13.015-6.646-17.771zm-14.406-8.636c-1.939-.441-3.957-.674-6.029-.674-13.541 0-27.081 0-27.081 0v19.379z" transform="matrix(1.53861 0 0 1.53861 -149.267 -719.554)"/><circle cx="24.22058542" cy="59.89896693" r="8.74928761" stroke-width="1.76789"/></svg>

<?xml version="1.0" encoding="UTF-8" standalone="no"?>
<!DOCTYPE svg PUBLIC "-//W3C//DTD SVG 1.1//EN" "http://www.w3.org/Graphics/SVG/1.1/DTD/svg11.dtd">
<svg width="100%" height="100%" viewBox="0 0 100 100" version="1.1" xmlns="http://www.w3.org/2000/svg" xmlns:xlink="http://www.w3.org/1999/xlink" xml:space="preserve" xmlns:serif="http://www.serif.com/" style="fill-rule:evenodd;clip-rule:evenodd;stroke-linejoin:round;stroke-miterlimit:2;">
    <g id="black">
        <g transform="matrix(1.53861,0,0,1.53861,-149.267,-719.554)">
            <path d="M97.016,495.52L97.014,467.665L129.511,467.665C133.919,467.665 138.121,468.542 141.954,470.132L141.954,470.132C142.02,470.16 142.087,470.188 142.153,470.216C146.389,472.023 150.216,474.739 153.363,478.09L153.363,478.09L153.363,478.09C158.728,483.886 162.008,491.641 162.008,500.162C162.008,511.943 155.739,522.26 146.355,527.958L146.356,527.958C141.444,530.942 135.68,532.659 129.513,532.659L125.079,532.659L125.072,532.658L125.079,532.658C123.156,528.141 124.263,520.161 135.843,500.455L136.96,498.743L110.024,532.659L97.016,532.659L97.016,495.52ZM145.429,478.25C144.143,477.324 142.184,476.222 142.184,476.222C128.934,483.709 115.683,491.195 102.432,498.681L102.432,527.243L107.409,527.243L145.987,478.668C145.836,478.552 145.684,478.438 145.531,478.325L145.482,478.289L145.429,478.25ZM149.947,482.391L145.867,487.528C137.66,499.33 136.336,517.131 141.278,524.56C150.341,520.181 156.593,510.902 156.593,500.162C156.593,500.162 156.593,500.162 156.593,500.162C156.593,493.362 154.086,487.147 149.947,482.391ZM135.541,473.755C133.602,473.314 131.584,473.081 129.512,473.081C115.971,473.081 102.431,473.081 102.431,473.081L102.431,492.46L135.541,473.755Z"/>
        </g>
        <g transform="matrix(1.76789,0,0,1.76789,-13.043,-63.0348)">
            <circle cx="21.078" cy="69.537" r="4.949"/>
        </g>
    </g>
</svg>
